svgs/sharp-light/usb-drive.svg

<svg xmlns="http://www.w3.org/2000/svg" viewBox="0 0 640 512"><!--! Font Awesome Pro 6.6.0 by @fontawesome - https://fontawesome.com License - https://fontawesome.com/license (Commercial License) Copyright 2024 Fonticons, Inc. --><path d="M32 128l0 256 384 0 0-256L32 128zM0 96l32 0 384 0 32 0 0 32 0 256 0 32-32 0L32 416 0 416l0-32L0 128 0 96zM480 384l0-32 128 0 0-192-128 0 0-32 128 0 32 0 0 32 0 192 0 32-32 0-128 0zm64-192l32 0 0 32-32 0 0-32zm32 96l0 32-32 0 0-32 32 0z"/></svg>

<svg xmlns="http://www.w3.org/2000/svg" viewBox="0 0 640 512"><!--! Font Awesome Pro 6.4.0 by @fontawesome - https://fontawesome.com License - https://fontawesome.com/license (Commercial License) Copyright 2023 Fonticons, Inc. --><path d="M32 128V384H416V128H32zM0 96H32 416h32v32V384v32H416 32 0V384 128 96zM480 384V352H608V160H480V128H608h32v32V352v32H608 480zm64-192h32v32H544V192zm32 96v32H544V288h32z"/></svg>
